X:54
T:Bonny Lass of Fisherrow
R:Reel
C:Daniel Dow
B:The Athole Collection
M:C|
L:1/8
K:C
A|GEcG AcGE|CEGE D/D/D A2|GEGc AFAc|BdGB c/c/c ~c:|
f|ecgc egca|gcec Bddf|ecgc egca|gede c/c/c ~cf|ecgc egca|
gcec Bddf|ecGc Acfa|gede c/c/c ~c||

